assets/icons/voice - white.svg

<svg id="Layer_1" data-name="Layer 1" xmlns="http://www.w3.org/2000/svg" viewBox="0 0 100 100"><g id="Layer_1-2" data-name="Layer 1"><path d="M100,84a16,16,0,0,1-16,16H16A16,16,0,0,1,0,84V16A16,16,0,0,1,16,0H84a16,16,0,0,1,16,16Z" style="fill:#242a30"/></g><g id="Layer_4" data-name="Layer 4"><path d="M50,56.9A6.91,6.91,0,0,0,56.9,50V38.5a6.9,6.9,0,0,0-13.8,0V50A6.91,6.91,0,0,0,50,56.9Z" style="fill:#fff"/><path d="M61.5,50V45.4H59.2v4.3a9.56,9.56,0,0,1-7.3,9.4,9.28,9.28,0,0,1-11.2-9V45.5H38.4V50a11.58,11.58,0,0,0,9.2,11.3v4.8H43v2.3H56.8V66.1H52.2V61.3A11.47,11.47,0,0,0,61.5,50Z" style="fill:#fff"/></g></svg>

<?xml version="1.0" encoding="utf-8"?>
<!-- Generator: Adobe Illustrator 24.3.0, SVG Export Plug-In . SVG Version: 6.00 Build 0)  -->
<svg version="1.1" xmlns="http://www.w3.org/2000/svg" xmlns:xlink="http://www.w3.org/1999/xlink" x="0px" y="0px"
	 viewBox="0 0 100 100" style="enable-background:new 0 0 100 100;" xml:space="preserve">
<style type="text/css">
	.st0{fill:#242A30;}
	.st1{fill:#FFFFFF;}
</style>
<g id="Layer_1">
	<g>
		<path class="st0" d="M100,84c0,8.8-7.2,16-16,16H16c-8.8,0-16-7.2-16-16V16C0,7.2,7.2,0,16,0h68c8.8,0,16,7.2,16,16V84z"/>
	</g>
</g>
<g id="Layer_3">
</g>
<g id="Layer_4">
	<g>
		<path class="st1" d="M50,56.9c3.8,0,6.9-3.1,6.9-6.9V38.5c0-3.8-3.1-6.9-6.9-6.9s-6.9,3.1-6.9,6.9V50C43.1,53.8,46.2,56.9,50,56.9
			z"/>
		<path class="st1" d="M61.5,50v-4.6h-2.3v4.3c0,4.4-3,8.5-7.3,9.4c-5.9,1.2-11.2-3.3-11.2-9v-4.6h-2.3V50c0,5.6,4,10.2,9.2,11.3
			v4.8h-4.6v2.3h13.8v-2.3h-4.6v-4.8C57.6,60.2,61.5,55.6,61.5,50z"/>
	</g>
</g>
</svg>
